X:1
T:Vous qui savez (Voi che sapete) 
T:Mozart
T:Jenne Van Antwerpen
T:Jenne Van Antwerpen
T:Jenne Van Antwerpen
T:Jenne Van Antwerpen
Z:Jenne Van Antwerpen
%%score 1 { ( 2 5 ) | ( 3 4 ) }
L:1/8
Q:1/4=66
M:2/4
K:G
V:1 treble nm="Flute" snm="Fl."
V:2 treble nm="Piano" snm="Pno."
V:5 treble 
V:3 bass 
V:4 bass 
V:1
"^Adagio" z4 | z4 | z4 | z4 | z4 | z4 | z4 | z4 | (G2 D)D | A2 D z | B2 (G/>A/)(B/>c/) | A2 z2 | %12
w: ||||||||Vous _ qui|sa- vez|ce qu'est * l'a- *|mour,|
 B2 c^c | (d>B) G z | A2 _B=B | c2 z2 | (dB) (dB) | (Ac) Ac | G2 (F/>G/)(A/>B/) | G2 z2 | A2 AA | %21
w: Femmes, vo- yez|si je l'ai|dans _ le|coeur.|Si _ je _|l'ai _ dans le|coeur. Dans _ le _|coeur.|Ce que j'é-|
 (B/^c/d/B/ A) z | (E>F) GA | (GF) z2 | B2 ^c2 | (d>B) F z | (FF/B/) A^G | A2 z2 | A2 Ad | %29
w: prou- * * * ve|Je _ vous di-|rai _|C'est nou-|veau pour moi|je ne le com- prends|pas.|Je sens un-|
 (^cA) G z | F2 DG | (FE) z2 | A2 (A/B/)(^c/d/) | (d/^c/B/A/) G z | =F>F ED | A2 z2 | A2 AA | %37
w: e ten- dresse|Pleine de dé-|sir _|qui est * par- *|fois * dé- * lice|et par- fois mar-|tyre|Je suis de|
 c2 _B2 | (_BG) (E_B,) | A,2 z2 | (cA) cA | (G_B) (GB) | =FF/F/{/A} G>F | =F2 z2 | A2 AA | %45
w: gla- ce,|puis mon coeur s'en-|flamme|En- * suite en|un * ins- tant|je re- de- viens de|glace.|Je cher- che|
 (A/=B/c/B/) A2 | c2 BA | E4 | c2 B^A | B>B G2 | F/F/F BB | E2 z/ G/G/G/ | (A/G/)G z/ G/G/G/ | %53
w: quel- * * que chose|Hors de moi-|même:|Je n'sais qui|le pos- sède|je ne sais ce que|c'est. Je sou- pire|et gé mis sans le vou-|
 E z z/ A/A/A/ | (B/A/)A z/ A/A/A/ | F2 z/ B/B/B/ | (c/B/)B BB/B/ | G>G cc | (c>d) B2 | _B>B AG | %60
w: loir Je pal- pite|et frémis * sans le sa-|voir Je ne trou-|ve la paix ni jour ni|nuit Ce- pen- dant|il me plaît|de lan- guir ain-|
 D4 | (G2 D)D | A2 D2 | B2 (G/>A/)(B/>c/) | A2 z2 | B2 c^c | (d>B) G z | A2 _B=B | c2 z2 | %69
w: si.|Vous _ qui|sa- vez|Ce qu'est * l'a- *|mour|Femmes, vo- yez|si je l'ai|dans _ le|coeur.|
 (dB) dB | (Ac) Ac | G2 D>D | B,2 z2 | (dB) dB | (Ac) (Ac) | G2 (F/>G/)(A/>B/) | G2 z2 | z4 | z4 |] %79
w: Si _ je _|l'ai _ dans le|coeur, dans le|coeur,|si _ je _|l'ai _ dans le|coeur, dans _ le _|coeur.|||
V:2
 ([B,G]2 [B,D])[B,D] | ([CA]2 [CD])[CD] | [B,DB]2 ([EG]/>[FA]/)([GB]/>[Ac]/) | [FA]D DD | %4
 ([Bd][GB]/) z/ ([Bd][GB]/) z/ | ([EA][Ac]/) z/ ([EA][Ac]/) z/ |{/B,} G2 [A,F]/>[B,G]/[CA]/>[DB]/ | %7
 .[B,G].[DB] .[B,G] z | z/ .[G,B,]/.[B,D]/.G/ z/ .[G,B,]/.[B,D]/.G/ | %9
 z/ .[A,C]/.[CD]/.A/ z/ .[A,C]/.[CD]/.A/ | z/ .[G,B,]/.[B,D]/.G/ z/ .[B,G]/.E/.A/ | %11
 z/ .D/.[DF]/.[FA]/ z/ .D/[DF]/[FA]/ | (B/G/B/G/ c/G/^c/G/ | %13
 d/)(3(d/4e/4d/4).g/.[fg]/ .[eg]/.[dg]/.[cg]/.[Bg]/ | (A/D/A/D/ _B/D/=B/D/ | %15
 c/)(3(c/4d/4c/4).[ca]/.[Bg]/ .[Af]/.[Ge]/.[Fd]/.[Ac]/ | %16
 .[GB]/.[G,B,]/.[B,D]/.G/ z/ .[G,B,]/.[B,D]/.G/ | z/ .[A,C]/.[CE]/.A/ z/ .[A,C]/.[CE]/.A/ | %18
 z/ .[G,B,]/.[B,D]/.G/ z/ .[F,A,]/.[A,C]/.F/ | [B,G][DB] .[B,G]/.B,/.[B,D]/.G/ | %20
 z/ .[F,A,]/.[A,D]/.F/ z/ .[F,A,]/.[A,D]/.F/ | z/ .[G,B,]/.[B,D]/.G/ z/ .[F,A,]/.[A,D]/.F/ | %22
 z/ .[E,G,]/.[G,^C]/.E/ z/ .[E,G,]/.[G,C]/.E/ | z/ .[F,A,]/.[A,D]/.F/ z/ .[F,A,]/.[A,D]/.F/ | %24
 z/ .[F,B,]/.[B,D]/.F/ z/ .[F,^A,]/.[A,^C]/.F/ | z/ .[F,B,]/.[B,D]/.F/ z/ .[F,B,]/.[B,D]/.F/ | %26
 z/ .[F,B,]/.[B,D]/.F/ .[A,^C]/.E/.[^G,B,]/.E/ | z/ .A,/.[A,^C]/.E/ z/ .A/.[A^ce]/.a/ | %28
 z/ .[A,D]/.[DF]/.A/ z/ .[F,D]/.[DF]/.A/ | z/ .[G,^C]/.[CE]/.G/ z/ .[E,A,]/.[A,E]/.G/ | %30
 z/ .[F,A,]/.[A,D]/.F/ z/ .[F,D]/.B,/.E/ | z/ .[A,^C]/.[CE]/.A/ z/ .A/.[A^ce]/.a/ | %32
 z/ .[A,D]/.[DF]/.A/ z/ .[A,D]/.[DF]/.A/ | z/ .[G,^C]/.[CE]/.G/ z/ .A,/.[A,E]/.G/ | %34
 z/ .[=F,A,]/.[A,D]/.=F/ z/ [^G,D]/.[DF]/.^G/ | z/ .[A,^C]/.[CE]/.A/ z/ .[A,C]/.[CE]/.A/ | %36
 z/ .[A,C]/.[C=F]/.A/ z/ .[A,C]/.[CF]/A/ | z/ .[G,C]/.[CG]/._B/ z/ .[G,C]/.[CG]/.B/ | %38
 z/ ._B,/.[EG]/.c/ z/ .B,/.[EG]/.c/ | z [Ac=f] [Ac][=FA] | z/ .[=F,A,]/.C/.=F/ z/ .[F,A,]/.C/.F/ | %41
 z/ .[G,_B,]/.D/.G/ z/ .[G,B,]/.D/.G/ | z/ .[=F,A,]/.[A,C]/.=F/ .E/>.F/.G/>.A/ | %43
 =FA .F/.A,/.C/.F/ | z/ .[A,C]/.[C=F]/.A/ z/ .[A,C]/.[CF]/.A/ | %45
 z/ .[CE]/.[EA]/.c/ z/ .[CE]/.[EA]/.c/ | z/ .[A,C]/.[C^F]/.A/ z/ .[CF]/.[FA]/.c/ | %47
 z/ E/[Bde]/E/ [Ace]/E/[^GBe]/E/ | c2 x2 | .^D/.F/.A/.^d/ .E/.G/.c/.e/ | %50
 z/ .[F,C]/.[CE]/.[EF]/ z/ .[F,A,]/.[A,B,]/.^D/ | z/ .[E,G,]/.[G,B,]/.E/ z/ .[E,G,]/.[G,B,]/.E/ | %52
 [Gd=fg]4 | [Gceg]((!>![^G^g] [Aa]2)) | [Aega]4 | [Adfa]([^A^a] [Bb]2) | [Bfab]4 | %57
 z/ .E/.[GB]/.E/ .[Ac]/.E/.[Ac]/._E/ | z/ .D/.[FA]/.D/ z/ .D/.[GB]/.E/ | _B2 AG | %60
 x/ D/F/D/ G/D/F/D/ | z/ .[G,B,]/.[B,D]/.G/ z/ .[G,B,]/.[B,D]/.G/ | %62
 z/ .[A,C]/.[CD]/.A/ z/ .[A,C]/.[CD]/.A/ | z/ .[G,B,]/.[B,D]/.G/ z/ .[B,G]/.E/.A/ | %64
 z [DAd]2 [D^Ad] | (B/G/B/G/ c/G/^c/G/ | d/)(3(d/4e/4d/4)g/.[fg]/ .[eg]/.[dg]/.[cg]/.[Bg]/ | %67
 (A/D/A/D/ _B/D/=B/D/ | c/)(3(c/4d/4c/4)a/.[Bg]/ .[Af]/[Ge]/.[Fd]/.[Ac]/ | %69
 .[GB]/.[G,B,]/.[B,D]/.G/ z/ .[G,B,]/.[B,D]/.G/ | z/ .[A,C]/.[CE]/.A/ z/ .[A,C]/.[CE]/.A/ | %71
 z/ .[G,B,]/.[B,D]/.G/ z/ .[F,A,]/.[A,C]/.F/ | z B eg | %73
 z/ .[G,B,]/.[B,D]/.G/ z/ .[G,B,]/.[B,D]/.G/ | z/ .[A,C]/.[CE]/.A/ z/ .[A,C]/.[CE]/.A/ | %75
 [B,G]2 ([A,F]/>[B,G]/)([CA]/>[DB]/) | G z (Tf3/2 x/ | g) z (Ta3/2 x/ | g) z z2 |] %79
V:3
 .G,,/.B,,/.D,/.G,/ .G,,/.B,,/.D,/.G,/ | .F,,/.A,,/.C,/.D,/ .F,,/.A,,/.C,/.D,/ | %2
 .G,,/.B,,/.D,/.G,/ .E,/.[G,B,]/.C,/.[E,A,]/ | .D,/.F,/.A,/.F,/ .D,/.F,/.A,/.F,/ | %4
 .G,,/.B,,/.D,/.G,/ .G,,/.B,,/.D,/.G,/ | .C,/.E,/.A,/.C/ .C,/.E,/.A,/.C/ | .D,/.G,/.B,/.D/ D,D, | %7
 .G,,/.B,,/.D,/.G,/ G,,[G,,G,] | G,, z G,, z | F,, z F,, z | G,, z E,,C,, | D,, z D,, z | %12
 (G,2 [G,A,][G,^A,] | [G,B,])[K:treble] z/ .d/ .c/.B/.A/.G/ |[K:bass] ([D,F,]2 [D,G,][D,^G,] | %15
 [D,A,]) z/ .D/ .D/.D/.D/.D/ | G,, z G,, z | [C,,C,] z [C,,C,] z | [D,,D,] z D,, z | G,,G, G,, z | %20
 D,, z D,, z | D,, z D,, z | [A,,,A,,] z [A,,,A,,] z | D,, z D,, z | [B,,,B,,] z F,, z | %25
 [B,,,B,,] z [B,,,B,,] z | D,, z E,, z | A,,2 [G,A,]2 | [F,A,] z [D,,D,] z | %29
 [E,,E,] z [^C,,^C,] z | [D,,D,] z B,,,G,,, | A,,, z [G,,G,] z | [F,,F,] z [D,,D,] z | %33
 [E,,E,] z [^C,,^C,] z | D,, z _B,,, z | A,,, z [A,,,A,,] z | =F,, z F,, z | E,, z E,, z | %38
 =C,, z C,, z | =F,,/=F,/A,/C/ F,,/F,/A,/C/ | A,, z A,, z | _B,, z B,, z | C, z G,/>A,/_B,/>C/ | %43
 [=F,A,][F,C] [F,A,] z | [=F,,=F,] z [F,,F,] z | [E,,E,] z [E,,E,] z | [^D,,^D,] z [D,,D,] z | %47
 [E,,E,] z [E,,E,] z | A,,2 B,,[C,G,] | B,, z C, z | [C,,C,] z [B,,,B,,] z | E,,2 E,,2 | %52
 B,,/D,/=F,/G,/ B,,/D,/F,/G,/ | C,/E,/^G,/E,/ A,/E,/A,/E,/ | ^C,/E,/G,/A,/ C,/E,/G,/A,/ | %55
 D,/F,/^A,/F,/ B,/F,/B,/F,/ | ^D,/F,/A,/B,/ D,/F,/A,/B,/ | E,2 [A,,A,][G,,G,] | %58
 [F,,F,]D, [G,,G,][E,,E,] | [^C,,^C,] z [C,,C,] z | D,=C, B,,A,, | G,, z G,, z | F,, z F,, z | %63
 G,, z E,,C,, | D,,/D,/F,/D,/ F,/D,/F,/D,/ | G,2 [G,A,][G,^A,] | %66
 [G,B,][K:treble] z/ .d/ .c/.B/.A/.G/ |[K:bass] [D,F,]2 [D,G,][D,^G,] | %68
 [D,A,] z/ .D/ .D/.D/.D/.D/ | G,, z G,, z | C, z C, z | D, z D, z | %72
 x/ [G,B,]/>[G,B,]/ x/ [G,B,]/>[G,B,]/ z | B,, z B,, z | C, z C, z | D,D, [D,,D,][D,,D,] | %76
 G,,/G,/B,/D/ x/ A,/C/D/ | [G,B,]/G,/B,/D/ x/ F,/A,/D/ | [G,B,] z z2 |] %79
V:4
 x4 | x4 | x4 | x4 | x4 | x4 | x4 | x4 | x4 | x4 | x4 | x4 | x4 | x[K:treble] x3 |[K:bass] x4 | %15
 x4 | x4 | x4 | x4 | x4 | x4 | x4 | x4 | x4 | x4 | x4 | x4 | x4 | x4 | x4 | x4 | x4 | x4 | x4 | %34
 x4 | x4 | x4 | x4 | x4 | x4 | x4 | x4 | x z C,C, | x4 | x4 | x4 | x4 | x4 | x4 | x4 | x4 | x4 | %52
 x4 | x4 | x4 | x4 | x4 | x4 | x4 | x4 | x4 | x4 | x4 | x4 | x4 | x4 | x[K:treble] x3 | %67
[K:bass] x4 | x4 | x4 | x4 | x4 | E, z E, z | x4 | x4 | x4 | x2 D,2 | x2 D,2 | x4 |] %79
V:5
 x4 | x4 | x4 | x4 | x4 | x4 | x4 | x4 | x4 | x4 | x4 | x4 | x4 | x4 | x4 | x4 | x4 | x4 | x4 | %19
 x4 | x4 | x4 | x4 | x4 | x4 | x4 | x4 | x4 | x4 | x4 | x4 | x4 | x4 | x4 | x4 | x4 | x4 | x4 | %38
 x4 | x4 | x4 | x4 | x4 | x4 | x4 | x4 | x4 | x4 | z/ .C/.E/.A/ .[GB]/.E/.^A/.E/ | x4 | x4 | x4 | %52
 x4 | x4 | x4 | x4 | x4 | x4 | x4 | [EG]/_B,/E/B,/ A/A,/E/A,/ | d[Bd] [Bd][cd] | x4 | x4 | x4 | %64
 x4 | x4 | x4 | x4 | x4 | x4 | x4 | x4 | z G2 [GB] | x4 | x4 | x4 | %76
 x2 x/4 x/4 x/4 x/4 x/4 x/4 e/4 f/4 | F2 x/4 x/4 x/4 x/4 x/4 x/4 g/4a/4 | x4 |] %79

